icon/cg/search-found.svg

<svg viewBox="0 0 24 24" fill="none" xmlns="http://www.w3.org/2000/svg" height="1em" width="1em">
  <path d="M7.66542 10.2366L9.19751 8.951L10.4831 10.4831L13.5473 7.91194L14.8328 9.44402L10.2366 13.3007L7.66542 10.2366Z" fill="currentColor"/>
  <path fill-rule="evenodd" clip-rule="evenodd" d="M16.2071 4.89344C19.0923 7.77862 19.3131 12.3193 16.8693 15.4578C16.8846 15.4713 16.8996 15.4854 16.9143 15.5L21.1569 19.7427C21.5474 20.1332 21.5474 20.7664 21.1569 21.1569C20.7664 21.5474 20.1332 21.5474 19.7427 21.1569L15.5 16.9143C15.4854 16.8996 15.4713 16.8846 15.4578 16.8693C12.3193 19.3131 7.77862 19.0923 4.89344 16.2071C1.76924 13.083 1.76924 8.01763 4.89344 4.89344C8.01763 1.76924 13.083 1.76924 16.2071 4.89344ZM14.7929 14.7929C17.1361 12.4498 17.1361 8.6508 14.7929 6.30765C12.4498 3.96451 8.6508 3.96451 6.30765 6.30765C3.96451 8.6508 3.96451 12.4498 6.30765 14.7929C8.6508 17.1361 12.4498 17.1361 14.7929 14.7929Z" fill="currentColor"/>
</svg>

<svg width="24" height="24" fill="none" xmlns="http://www.w3.org/2000/svg"><path d="M7.665 10.237 9.198 8.95l1.285 1.532 3.064-2.571 1.286 1.532-4.596 3.857-2.572-3.064Z" fill="currentColor"/><path fill-rule="evenodd" clip-rule="evenodd" d="M16.207 4.893a8.001 8.001 0 0 1 .662 10.565c.016.013.03.027.045.042l4.243 4.243a1 1 0 0 1-1.414 1.414L15.5 16.914a1.046 1.046 0 0 1-.042-.045A8.001 8.001 0 0 1 4.893 4.893a8 8 0 0 1 11.314 0Zm-1.414 9.9a6 6 0 1 0-8.485-8.485 6 6 0 0 0 8.485 8.485Z" fill="currentColor"/></svg>
